22x22/apps/chrome-acpcknggdnfoghhojnkpldmfnnjiobdp-Default.svg

<svg xmlns="http://www.w3.org/2000/svg" width="22" height="22" version="1">
 <path style="opacity:0.2;fill:#f4f4f7" d="m 106.53763,-36.516129 c -1.108,0 -2,0.892 -2,2 v 1 c 0,-1.108 0.892,-2 2,-2 h 36 c 1.108,0 2,0.892 2,2 v -1 c 0,-1.108 -0.892,-2 -2,-2 z"/>
 <path style="opacity:0.2" d="M 6.7382475,1.500345 C 6.5323595,1.49708 6.326233,1.51696 6.123218,1.5619717 5.1866175,1.7696305 4.344132,2.4085121 3.9379615,3.3921888 3.8692023,3.5587109 3.7067922,4.0494539 3.7206055,4.5807054 3.4425283,4.6978509 3.1706716,4.8308514 2.9515747,5.0238309 c -0.8095935,0.7130595 -1.1840169,1.74288 -0.9659183,2.836788 0.021388,0.1073315 0.024534,0.04449 0.042887,0.1154275 -0.2997335,0.2598595 -0.5499098,0.550749 -0.6754606,0.794301 -0.66256221,1.2852966 -0.26648,2.3790026 0.1617987,3.3914276 0.4282786,1.012426 1.0893469,2.132123 2.0302803,3.561636 0.8686942,1.319772 1.5544157,2.190083 2.3957892,2.994278 2.386476,2.281034 5.326305,3.281049 8.206894,2.542349 2.317757,-0.594373 4.306106,-2.082014 5.459241,-4.150514 1.116218,-2.002292 1.531824,-4.572055 1.352871,-7.084143 -0.0899,-1.2620306 -0.19137,-2.1842666 -0.58579,-3.1087276 C 20.176956,6.4544229 19.872091,5.9564884 19.362438,5.5696684 18.852787,5.1828479 18.17526,4.9999264 17.636261,5.0003544 h -9.49e-4 c -0.829274,9e-4 -1.888471,0.49359 -2.453297,1.1904725 C 13.929443,4.2253509 12.98489,2.8836688 11.666283,2.1185691 10.829628,1.6331151 9.6116055,1.3772652 8.5209565,2.1234601 7.9740855,1.7305085 7.3559105,1.5101472 6.7382475,1.500345 Z"/>
 <path style="fill:#17191e" d="M 6.7382475,1.0003452 C 6.5323595,0.99708016 6.326233,1.0169602 6.123218,1.0619719 5.1866175,1.2696307 4.344132,1.9085122 3.9379615,2.892189 3.8692023,3.0587111 3.7067922,3.5494543 3.7206055,4.0807054 3.4425283,4.1978509 3.1706716,4.3308514 2.9515747,4.5238309 c -0.8095936,0.7130595 -1.1840169,1.74288 -0.9659183,2.836788 0.021388,0.1073315 0.024534,0.04449 0.042887,0.1154275 -0.2997335,0.2598595 -0.5499098,0.550749 -0.6754606,0.794301 -0.66256221,1.2852965 -0.26648,2.3790026 0.1617987,3.3914276 0.4282786,1.012426 1.0893469,2.132123 2.0302803,3.561636 0.8686942,1.319772 1.5544157,2.190083 2.3957892,2.994278 2.386476,2.281034 5.326304,3.281049 8.206893,2.542349 2.317758,-0.594373 4.306107,-2.082014 5.459242,-4.150514 1.116218,-2.002292 1.531824,-4.572055 1.352871,-7.0841431 -0.0899,-1.2620305 -0.19137,-2.1842665 -0.58579,-3.1087275 C 20.176956,5.9544229 19.872091,5.4564884 19.362438,5.0696684 18.852787,4.6828479 18.17526,4.4999264 17.636261,4.5003544 h -9.49e-4 c -0.829274,9e-4 -1.888471,0.49359 -2.453297,1.1904725 C 13.929443,3.7253512 12.98489,2.383669 11.666283,1.6185692 10.829628,1.1331152 9.6116055,0.87726526 8.5209565,1.6234602 7.9740855,1.2305086 7.3559105,1.0101473 6.7382475,1.0003452 Z"/>
 <path style="opacity:0.2" d="m 13.644619,19.294631 c 1.806644,-0.461638 3.346568,-1.623227 4.218884,-3.182374 0.821828,-1.468916 1.25892,-3.820421 1.106472,-5.952745 -0.16766,-2.3450876 -0.535628,-3.1601436 -1.333888,-3.1595121 -0.738784,8e-4 -1.186708,0.523103 -1.567052,2.023065 -0.0781,0.307982 -0.18608,0.628183 -0.239964,0.711562 -0.128612,0.199011 -0.436836,0.199011 -0.667456,0 -0.09662,-0.08338 -0.56268,-0.768429 -1.035688,-1.522336 -1.62528,-2.590448 -2.658632,-3.886865 -3.473808,-4.3581592 -0.441252,-0.2551095 -0.8992275,-0.2698176 -1.1474515,-0.03685 -0.321052,0.3013138 -0.22298,0.8333743 0.322556,1.7499483 2.4673955,4.145536 2.4571195,4.124669 2.0543595,4.171256 -0.219244,0.02534 -0.0419,0.258917 -2.3435915,-3.0863125 C 8.530852,5.1884309 7.604472,3.8941161 7.479368,3.7759216 6.952592,3.2782384 6.038692,3.4821592 5.757768,4.1600684 5.5494475,4.6627709 5.6010475,4.7627879 7.67498,7.8761979 c 1.251692,1.879061 1.9253955,2.9495751 1.9120995,3.0383191 -0.03444,0.229705 -0.225008,0.30111 -0.394912,0.147954 C 9.1116755,10.989916 8.333824,9.9684359 7.463608,8.7925134 6.593396,7.6165899 5.792052,6.5793219 5.682848,6.4874704 5.2462,6.1202224 4.6871395,6.1353244 4.2415195,6.5264154 c -0.2652919,0.23282 -0.3936159,0.601231 -0.3264119,0.937093 0.02796,0.1398095 0.7847119,1.256171 2.0255204,2.9881016 1.688472,2.356795 1.9779,2.795099 1.960812,2.969445 -0.01744,0.177896 -0.04639,0.20454 -0.222264,0.20454 -0.180436,0 -0.273392,-0.09435 -0.862916,-0.875888 C 4.3713635,9.5085109 4.2246475,9.3472189 3.7213716,9.3472189 c -0.3341,0 -0.496672,0.08726 -0.625116,0.335531 -0.357392,0.6908111 0.267712,2.1632171 2.0886844,4.9197981 0.8315,1.258728 1.383716,1.949943 2.111756,2.643314 2.0875955,1.988196 4.074879,2.629581 6.347923,2.048773 z"/>
 <path style="fill:#ffca34" d="m 13.644619,18.794631 c 1.806644,-0.461638 3.346568,-1.623227 4.218884,-3.182374 0.821828,-1.468916 1.25892,-3.820421 1.106472,-5.9527451 -0.16766,-2.3450875 -0.535628,-3.1601435 -1.333888,-3.159512 -0.738784,8e-4 -1.186708,0.523103 -1.567052,2.0230645 -0.0781,0.3079825 -0.18608,0.6281835 -0.239964,0.7115625 -0.128612,0.199011 -0.436836,0.199011 -0.667456,0 -0.09662,-0.08338 -0.56268,-0.768429 -1.035688,-1.522336 -1.62528,-2.590448 -2.658632,-3.8868651 -3.473808,-4.3581591 -0.441252,-0.2551095 -0.8992275,-0.2698175 -1.1474515,-0.03685 -0.321052,0.3013135 -0.22298,0.8333741 0.322556,1.7499481 2.4673955,4.145536 2.4571195,4.124669 2.0543595,4.171256 -0.219244,0.02534 -0.0419,0.258917 -2.3435915,-3.0863125 C 8.530852,4.6884309 7.604472,3.3941163 7.479368,3.2759218 6.952592,2.7782386 6.038692,2.9821594 5.757768,3.6600683 5.5494475,4.1627709 5.6010475,4.2627879 7.67498,7.3761979 c 1.251692,1.879061 1.9253955,2.9495751 1.9120995,3.0383191 -0.03444,0.229705 -0.225008,0.30111 -0.394912,0.147954 C 9.1116755,10.489916 8.333824,9.4684359 7.463608,8.2925134 6.593396,7.1165899 5.792052,6.0793219 5.682848,5.9874704 5.2462,5.6202224 4.6871395,5.6353244 4.2415195,6.0264154 c -0.2652919,0.23282 -0.3936159,0.601231 -0.3264119,0.937093 0.02796,0.1398095 0.7847119,1.256171 2.0255204,2.9881015 1.688472,2.3567951 1.9779,2.7950991 1.960812,2.9694451 -0.01744,0.177896 -0.04639,0.20454 -0.222264,0.20454 -0.180436,0 -0.273392,-0.09435 -0.862916,-0.875888 C 4.3713635,9.0085109 4.2246475,8.8472189 3.7213716,8.8472189 c -0.3341,0 -0.496672,0.087261 -0.625116,0.335531 -0.357392,0.690811 0.267712,2.1632171 2.0886844,4.9197981 0.8315,1.258728 1.383716,1.949943 2.111756,2.643314 2.0875955,1.988196 4.074879,2.629581 6.347923,2.048773 z"/>
 <path style="opacity:0.1;fill:#f4f4f7" d="M 6.7382805,0.99999986 C 6.532393,0.99673486 6.3260615,1.0165116 6.1230465,1.0615234 5.186446,1.2691822 4.34367,1.9089012 3.9374995,2.892578 3.8687403,3.0591001 3.7068893,3.5498034 3.7207026,4.0810544 3.4426254,4.1981999 3.1702683,4.3304579 2.9511714,4.5234374 2.2308721,5.1578499 1.8580416,6.0440104 1.9374995,7.0019529 2.0018089,6.2392174 2.3582706,5.5456419 2.9511714,5.0234374 3.1702683,4.8304579 3.4426254,4.6981999 3.7207026,4.5810544 3.7068893,4.0498029 3.8687403,3.5591001 3.9374995,3.392578 4.34367,2.4089012 5.186446,1.7691822 6.1230465,1.5615234 c 0.203015,-0.045012 0.4093465,-0.064788 0.615234,-0.061524 0.617663,0.0098 1.235356,0.2300953 1.782227,0.6230469 1.090649,-0.7461948 2.3088525,-0.4903368 3.1455075,-0.00488 1.318607,0.7650998 2.263053,2.1067896 3.515624,4.0722656 0.564826,-0.6968855 1.624829,-1.1895325 2.454102,-1.1904325 h 0.001 c 0.538998,-4.28e-4 1.215934,0.1825155 1.725586,0.569336 0.509652,0.38682 0.814508,0.8854255 1.011719,1.347656 0.39442,0.924461 0.496034,1.846368 0.585937,3.1083991 0.01869,0.26232 0.02663,0.525219 0.03223,0.788086 0.0047,-0.42925 -0.0016,-0.8590871 -0.03223,-1.2880861 -0.08993,-1.262031 -0.191541,-2.183938 -0.585961,-3.108399 -0.19721,-0.4622305 -0.502066,-0.960836 -1.011719,-1.347656 -0.509651,-0.3868205 -1.186587,-0.569764 -1.725585,-0.569336 h -10e-4 c -0.829273,9e-4 -1.889276,0.493547 -2.454102,1.1904295 C 13.929068,3.7249539 12.984622,2.3832637 11.666015,1.6181639 10.82936,1.13271 9.6111565,0.87685186 8.5205075,1.6230468 7.9736365,1.2300952 7.3559435,1.0098021 6.7382805,0.99999986 Z M 1.945312,7.5585939 C 1.6863345,7.7966689 1.4661304,8.0520489 1.3535151,8.2705079 1.0470635,8.8649894 0.97264349,9.4170059 1.0175776,9.9404299 1.0471581,9.5668679 1.1427961,9.1792789 1.3535151,8.7705079 1.4790659,8.5269559 1.7285864,8.2354454 2.0283198,7.9755859 2.0099673,7.9046484 2.0067388,7.9676809 1.9853513,7.8603514 1.9650998,7.7587774 1.9554723,7.6588604 1.945312,7.5585939 Z"/>
 <path style="opacity:0.2;fill:#f4f4f7" d="M 6.7773435,2.9999999 C 6.356301,2.9978199 5.9333895,3.236463 5.757812,3.6601561 5.6791075,3.8500798 5.637978,3.9839786 5.728517,4.2431639 c 0.010115,-0.02755 0.01701,-0.053359 0.029295,-0.083008 0.280924,-0.677909 1.1949035,-0.8814721 1.7216795,-0.3837888 0.125104,0.1181945 1.051454,1.4122338 2.058594,2.8759768 2.3016965,3.345229 2.1245055,3.111282 2.3437495,3.085937 0.195324,-0.0226 0.291578,-0.03795 0.06445,-0.511718 -0.02175,0.0034 -0.03906,0.0088 -0.06445,0.01172 -0.219244,0.02535 -0.04205,0.259291 -2.3437495,-3.0859375 C 8.5309455,4.6886009 7.6045955,3.3945616 7.4794915,3.2763671 7.2819505,3.0897358 7.0299685,3.0013081 6.7773435,2.9999999 Z m 3.2285155,0.1523437 c -0.2006785,-0.00644 -0.3768655,0.048555 -0.5009765,0.1650391 -0.174776,0.1640305 -0.220793,0.399982 -0.142579,0.7255862 0.03016,-0.085557 0.07484,-0.1620157 0.142579,-0.2255862 0.248223,-0.2329675 0.7062085,-0.2180001 1.1474605,0.03711 0.815176,0.4712942 1.848353,1.7669737 3.473633,4.3574217 0.473008,0.753907 0.938536,1.4390825 1.035156,1.5224615 0.23062,0.19901 0.539356,0.19901 0.667968,0 0.05388,-0.08338 0.162139,-0.402955 0.240235,-0.710938 0.380344,-1.499962 0.827622,-2.022638 1.566406,-2.023438 0.79826,-6.5e-4 1.166325,0.8140915 1.333984,3.1591801 0.01394,0.194994 0.01822,0.393003 0.02246,0.59082 0.0068,-0.366278 0.0032,-0.731712 -0.02246,-1.0908201 -0.16766,-2.3450885 -0.535724,-3.1598115 -1.333984,-3.15918 -0.738784,8e-4 -1.186062,0.523476 -1.566406,2.0234375 -0.0781,0.3079825 -0.186351,0.6275585 -0.240235,0.7109375 -0.128612,0.199011 -0.437348,0.199011 -0.667968,0 -0.09662,-0.083379 -0.562148,-0.768554 -1.035156,-1.522461 C 12.500696,5.1214659 11.467519,3.8257861 10.652343,3.3544921 10.431717,3.2269374 10.206537,3.1587884 10.005859,3.1523436 Z M 4.96582,5.7226559 c -0.250049,0.00676 -0.5017995,0.1081655 -0.7246095,0.303711 -0.2652919,0.23282 -0.3933759,0.601638 -0.3261719,0.9375 0.00121,0.00608 0.02339,0.03908 0.027343,0.04883 0.052741,-0.1844295 0.1512919,-0.35685 0.2988284,-0.4863285 0.44562,-0.391091 1.004758,-0.4063105 1.441406,-0.039065 0.109204,0.091851 0.911038,1.129741 1.78125,2.3056645 0.8702155,1.175922 1.6480235,2.1969751 1.7285155,2.2695311 0.169904,0.153155 0.360091,0.08127 0.394531,-0.148438 0.0036,-0.02364 -0.0497,-0.126423 -0.141601,-0.286133 -0.07416,0.03064 -0.165794,0.01312 -0.25293,-0.06543 C 9.1118905,10.489943 8.334082,9.4688899 7.4638665,8.2929679 6.5936545,7.1170444 5.7918205,6.0791549 5.6826165,5.9873034 5.4642925,5.8036794 5.2158685,5.7158994 4.96582,5.7226549 Z m -1.2441408,3.125 c -0.3341,0 -0.496556,0.086691 -0.625,0.334961 -0.093513,0.180754 -0.1161271,0.419044 -0.071289,0.715821 0.016071,-0.07814 0.038062,-0.151595 0.071289,-0.215821 0.128444,-0.248269 0.2909,-0.334961 0.625,-0.334961 0.5032758,0 0.6498298,0.161148 3.0947263,3.4023441 0.5895245,0.781534 0.681869,0.875977 0.862305,0.875977 0.175874,0 0.205216,-0.02718 0.222656,-0.205078 0.00516,-0.05264 -0.038365,-0.155483 -0.1191405,-0.301758 -0.02721,0.0048 -0.061139,0.0068 -0.1035155,0.0068 -0.180436,0 -0.2727805,-0.09444 -0.862305,-0.875977 C 4.371509,9.0088029 4.224955,8.8476549 3.7216792,8.8476549 Z"/>
</svg>

<svg xmlns="http://www.w3.org/2000/svg" width="22" height="22" version="1"><path style="opacity:.2;fill:#f4f4f7" d="M106.538-36.516c-1.108 0-2 .892-2 2v1c0-1.108.892-2 2-2h36c1.108 0 2 .892 2 2v-1c0-1.108-.892-2-2-2z"/><path style="opacity:.2" d="M6.738 1.5a2.645 2.645 0 0 0-.615.062 3.069 3.069 0 0 0-2.185 1.83 3.193 3.193 0 0 0-.217 1.189c-.278.117-.55.25-.77.443-.809.713-1.183 1.743-.965 2.837.021.107.024.044.043.115-.3.26-.55.55-.676.794-.662 1.286-.266 2.38.162 3.392.428 1.012 1.09 2.132 2.03 3.561.869 1.32 1.555 2.19 2.396 2.995 2.386 2.28 5.326 3.28 8.207 2.542 2.318-.594 4.306-2.082 5.46-4.15 1.115-2.003 1.53-4.573 1.352-7.085-.09-1.262-.191-2.184-.586-3.108-.197-.463-.502-.96-1.012-1.347S18.175 5 17.636 5c-.83.001-1.89.494-2.454 1.19-1.253-1.965-2.197-3.306-3.516-4.071-.836-.486-2.054-.742-3.145.004-.547-.392-1.165-.613-1.783-.623z"/><path style="fill:#17191e" d="M6.738 1a2.645 2.645 0 0 0-.615.062 3.069 3.069 0 0 0-2.185 1.83 3.193 3.193 0 0 0-.217 1.189c-.278.117-.55.25-.77.443-.809.713-1.183 1.743-.965 2.837.021.107.024.044.043.115-.3.26-.55.55-.676.794-.662 1.286-.266 2.38.162 3.392.428 1.012 1.09 2.132 2.03 3.561.869 1.32 1.555 2.19 2.396 2.995 2.386 2.28 5.326 3.28 8.207 2.542 2.318-.594 4.306-2.082 5.46-4.15 1.115-2.003 1.53-4.573 1.352-7.085-.09-1.262-.191-2.184-.586-3.108-.197-.463-.502-.96-1.012-1.347s-1.187-.57-1.726-.57c-.83.001-1.89.494-2.454 1.19-1.253-1.965-2.197-3.306-3.516-4.071-.836-.486-2.054-.742-3.145.004C7.974 1.231 7.356 1.01 6.738 1z"/><path style="opacity:.2" d="M13.645 19.295c1.806-.462 3.346-1.624 4.219-3.183.821-1.469 1.258-3.82 1.106-5.952C18.802 7.814 18.434 7 17.636 7c-.739 0-1.187.523-1.567 2.023-.078.308-.186.628-.24.712-.129.199-.437.199-.667 0-.097-.084-.563-.769-1.036-1.523-1.625-2.59-2.659-3.887-3.474-4.358-.441-.255-.9-.27-1.147-.037-.321.302-.223.834.322 1.75 2.468 4.146 2.457 4.125 2.055 4.171-.22.026-.042.26-2.344-3.086-1.007-1.464-1.934-2.758-2.059-2.876-.526-.498-1.44-.294-1.721.384-.209.503-.157.603 1.917 3.716 1.252 1.88 1.925 2.95 1.912 3.039-.034.23-.225.3-.395.147-.08-.072-.858-1.094-1.728-2.27-.87-1.175-1.672-2.213-1.781-2.305-.437-.367-.996-.352-1.441.04a1.009 1.009 0 0 0-.327.937c.028.14.785 1.256 2.026 2.988 1.688 2.356 1.978 2.795 1.96 2.97-.017.177-.046.204-.222.204-.18 0-.273-.095-.863-.876-2.445-3.241-2.591-3.403-3.095-3.403-.334 0-.496.087-.625.336-.357.69.268 2.163 2.089 4.92.831 1.258 1.384 1.95 2.112 2.643 2.087 1.988 4.075 2.63 6.348 2.049z"/><path style="fill:#ffca34" d="M13.645 18.795c1.806-.462 3.346-1.624 4.219-3.183.821-1.469 1.258-3.82 1.106-5.952-.168-2.346-.536-3.16-1.334-3.16-.739 0-1.187.523-1.567 2.023-.078.308-.186.628-.24.712-.129.199-.437.199-.667 0-.097-.084-.563-.769-1.036-1.523-1.625-2.59-2.659-3.887-3.474-4.358-.441-.255-.9-.27-1.147-.037-.321.302-.223.834.322 1.75 2.468 4.146 2.457 4.125 2.055 4.171-.22.026-.042.26-2.344-3.086-1.007-1.464-1.934-2.758-2.059-2.876-.526-.498-1.44-.294-1.721.384-.209.503-.157.603 1.917 3.716 1.252 1.88 1.925 2.95 1.912 3.039-.034.23-.225.3-.395.147-.08-.072-.858-1.094-1.728-2.27-.87-1.175-1.672-2.213-1.781-2.305-.437-.367-.996-.352-1.441.04a1.009 1.009 0 0 0-.327.937c.028.14.785 1.256 2.026 2.988 1.688 2.356 1.978 2.795 1.96 2.97-.017.177-.046.204-.222.204-.18 0-.273-.095-.863-.876-2.445-3.241-2.591-3.403-3.095-3.403-.334 0-.496.087-.625.336-.357.69.268 2.163 2.089 4.92.831 1.258 1.384 1.95 2.112 2.643 2.087 1.988 4.075 2.63 6.348 2.049z"/><path style="opacity:.1;fill:#f4f4f7" d="M6.738 1a2.646 2.646 0 0 0-.615.062 3.07 3.07 0 0 0-2.186 1.83c-.068.167-.23.658-.216 1.19-.278.116-.55.248-.77.441-.72.635-1.093 1.521-1.014 2.479a2.948 2.948 0 0 1 1.014-1.979c.22-.193.492-.325.77-.442a3.195 3.195 0 0 1 .216-1.188 3.07 3.07 0 0 1 2.186-1.831c.203-.045.41-.065.615-.062.618.01 1.236.23 1.783.623 1.09-.746 2.308-.49 3.145-.005 1.319.765 2.263 2.107 3.516 4.072.564-.696 1.624-1.19 2.454-1.19.54 0 1.217.183 1.726.57.51.386.815.885 1.012 1.347.394.924.496 1.846.586 3.108.019.263.027.526.032.788.005-.429-.001-.859-.032-1.288-.09-1.262-.192-2.184-.586-3.108-.197-.462-.502-.96-1.012-1.348-.51-.386-1.186-.57-1.725-.569h-.001c-.83 0-1.89.494-2.454 1.19-1.253-1.965-2.197-3.307-3.516-4.072-.837-.485-2.055-.741-3.145.005C7.974 1.23 7.356 1.01 6.738 1zM1.945 7.559c-.259.238-.479.493-.591.712a2.978 2.978 0 0 0-.336 1.67c.03-.374.125-.762.336-1.17.125-.244.375-.536.674-.795-.018-.071-.021-.008-.043-.116-.02-.101-.03-.201-.04-.301z"/><path style="opacity:.2;fill:#f4f4f7" d="M6.777 3a1.094 1.094 0 0 0-1.02.66c-.078.19-.119.324-.028.583.01-.027.017-.053.029-.083.28-.678 1.195-.881 1.721-.384.126.119 1.052 1.413 2.06 2.876 2.3 3.346 2.124 3.112 2.343 3.086.195-.022.291-.038.064-.511-.021.003-.039.008-.064.011-.22.026-.042.26-2.344-3.086C8.531 4.69 7.605 3.395 7.48 3.276A1.021 1.021 0 0 0 6.777 3zm3.229.152a.684.684 0 0 0-.501.165c-.175.164-.22.4-.143.726a.554.554 0 0 1 .143-.226c.248-.233.706-.218 1.147.037.816.472 1.849 1.767 3.474 4.358.473.754.939 1.439 1.035 1.522.23.2.54.2.668 0 .054-.083.162-.403.24-.71.38-1.5.828-2.023 1.567-2.024.798 0 1.166.814 1.334 3.16.014.194.018.392.022.59.007-.366.003-.732-.022-1.09-.168-2.346-.536-3.16-1.334-3.16-.739 0-1.186.523-1.567 2.023-.078.308-.186.628-.24.711-.129.2-.437.2-.668 0-.096-.083-.562-.768-1.035-1.522-1.625-2.59-2.658-3.886-3.474-4.358a1.41 1.41 0 0 0-.646-.202zm-5.04 2.57c-.25.007-.502.109-.725.304a1.01 1.01 0 0 0-.326.938c.001.006.023.039.027.049.053-.185.152-.357.3-.487.445-.39 1.004-.406 1.44-.039.11.092.912 1.13 1.782 2.306.87 1.176 1.648 2.197 1.728 2.27.17.153.36.08.395-.149.004-.024-.05-.126-.142-.286-.074.03-.165.013-.253-.066-.08-.072-.858-1.093-1.728-2.269-.87-1.176-1.672-2.214-1.781-2.306a1.06 1.06 0 0 0-.717-.264zM3.722 8.849c-.334 0-.497.086-.625.335-.094.18-.116.419-.072.715a.837.837 0 0 1 .072-.215c.128-.249.29-.335.625-.335.503 0 .65.16 3.094 3.402.59.782.682.876.863.876.176 0 .205-.027.222-.205.006-.053-.038-.156-.119-.302a.614.614 0 0 1-.103.007c-.18 0-.273-.094-.863-.876-2.444-3.241-2.591-3.402-3.094-3.402z"/></svg>
